public/images/cytoscape.svg

<?xml version="1.0" encoding="UTF-8"?>
<!DOCTYPE svg PUBLIC "-//W3C//DTD SVG 1.1//EN" "http://www.w3.org/Graphics/SVG/1.1/DTD/svg11.dtd">
<svg version="1.1" xmlns="http://www.w3.org/2000/svg" xmlns:xlink="http://www.w3.org/1999/xlink" x="0" y="0" width="630" height="630" viewBox="0, 0, 630, 630">
    <defs>
        <clipPath id="Clip_1">
            <path d="M211.883,187.846 L602.946,187.846 L602.946,578.909 L211.883,578.909 z"/>
        </clipPath>
    </defs>
    <g id="logo">
        <path d="M0,0 L630,0 L630,630 L0,630 z" fill="#F7DF1E" id="background"/>
        <path d="M166.65,524.784 L214.863,495.607 C224.164,512.098 232.625,526.051 252.92,526.051 C272.374,526.051 284.639,518.441 284.639,488.841 L284.639,287.541 L343.842,287.541 L343.842,489.678 C343.842,550.998 307.899,578.909 255.458,578.909 C208.096,578.909 180.605,554.381 166.65,524.779" fill="#000000" id="j" display="none"/>
        <path d="M375,520.13 L423.206,492.219 C435.896,512.943 452.389,528.166 481.568,528.166 C506.099,528.166 521.741,515.901 521.741,498.985 C521.741,478.686 505.673,471.496 478.606,459.659 L463.809,453.311 C421.094,435.13 392.759,412.294 392.759,364.084 C392.759,319.68 426.59,285.846 479.454,285.846 C517.091,285.846 544.156,298.957 563.607,333.212 L517.511,362.814 C507.361,344.631 496.369,337.443 479.454,337.443 C462.115,337.443 451.119,348.438 451.119,362.814 C451.119,380.576 462.115,387.766 487.486,398.763 L502.286,405.105 C552.611,426.674 580.946,448.663 580.946,498.139 C580.946,551.426 539.08,580.604 482.836,580.604 C427.86,580.604 392.336,554.386 375,520.13" fill="#000000" id="s" display="none"/>
        <g clip-path="url(#Clip_1)" id="cytoscape-logo">
            <path d="M520.194,478.644 C547.125,478.644 568.966,500.488 568.966,527.419 C568.966,554.347 547.125,576.191 520.194,576.191 C493.263,576.191 471.419,554.347 471.419,527.419 C471.419,514.948 476.154,503.102 484.568,494.111 L462.669,450.403 C460.537,450.657 458.39,450.784 456.239,450.784 C445.315,450.784 434.77,447.509 425.847,441.408 L401.05,463.246 C401.22,464.527 401.301,465.82 401.301,467.121 C401.301,483.549 387.976,496.878 371.545,496.878 C355.114,496.878 341.785,483.549 341.785,467.121 C341.785,450.686 355.114,437.358 371.545,437.358 C374.38,437.358 377.186,437.762 379.891,438.55 L405.72,415.803 C404.404,412.307 403.462,408.683 402.902,404.987 L341.328,396.693 C332.904,412.349 316.476,422.354 298.37,422.354 C271.442,422.354 249.598,400.51 249.598,373.582 C249.598,346.65 271.442,324.81 298.37,324.81 C322.065,324.81 342.071,341.805 346.314,364.587 L407.874,372.884 C408.285,372.056 408.715,371.242 409.168,370.437 L362.13,322.405 C356.026,325.051 349.44,326.416 342.736,326.416 C315.805,326.416 293.964,304.575 293.964,277.644 C293.964,250.716 315.805,228.872 342.736,228.872 C359.265,228.872 374.484,237.208 383.436,250.765 L454.567,232.825 C457.761,208.908 478.259,190.564 502.909,190.564 C529.837,190.564 551.681,212.408 551.681,239.336 C551.681,265.599 530.909,287.02 504.907,288.069 L485.634,351.571 C500.83,361.446 510.196,378.395 510.196,396.827 C510.196,412.297 503.61,426.828 492.256,437.002 L513.357,479.123 C515.619,478.804 517.903,478.644 520.194,478.644 z M454.346,342.903 L473.882,278.53 C468.893,274.832 464.647,270.207 461.381,264.921 L391.257,282.607 C390.628,288.799 388.829,294.789 385.939,300.29 L432.85,348.192 C439.56,344.959 446.863,343.16 454.346,342.903 z" fill="#000000"/>
        </g>
    </g>
</svg>

<svg width="1500" height="630" xmlns="http://www.w3.org/2000/svg" xmlns:svg="http://www.w3.org/2000/svg" version="1.1">
    <g class="layer">
        <title>Layer 1</title>
        <g id="logo" transform="matrix(1 0 0 1 0 0)">
            <path d="m0,0l630,0l0,630l-630,0l0,-630z" fill="#F7DF1E" id="background"/>
            <path d="m166.65,524.78l48.21,-29.17c9.3,16.49 17.77,30.44 38.06,30.44c19.45,0 31.72,-7.61 31.72,-37.21l0,-201.3l59.2,0l0,202.14c0,61.32 -35.94,89.23 -88.38,89.23c-47.36,0 -74.86,-24.53 -88.81,-54.13" display="none" fill="#000000" id="j"/>
            <path d="m375,520.13l48.21,-27.91c12.69,20.72 29.18,35.95 58.36,35.95c24.53,0 40.17,-12.27 40.17,-29.18c0,-20.3 -16.07,-27.49 -43.13,-39.33l-14.8,-6.35c-42.72,-18.18 -71.05,-41.02 -71.05,-89.23c0,-44.4 33.83,-78.23 86.69,-78.23c37.64,0 64.71,13.11 84.16,47.36l-46.1,29.6c-10.15,-18.18 -21.14,-25.37 -38.06,-25.37c-17.33,0 -28.33,11 -28.33,25.37c0,17.77 11,24.96 36.37,35.95l14.8,6.35c50.32,21.56 78.66,43.55 78.66,93.03c0,53.29 -41.87,82.46 -98.11,82.46c-54.98,0 -90.5,-26.21 -107.84,-60.47" display="none" fill="#000000" id="s"/>
            <g clip-path="url(#Clip_1)" id="cytoscape-logo">
                <path d="m520.19,478.64c26.94,0 48.78,21.85 48.78,48.78c0,26.93 -21.84,48.77 -48.78,48.77c-26.93,0 -48.77,-21.84 -48.77,-48.77c0,-12.47 4.73,-24.32 13.15,-33.31l-21.9,-43.71c-2.13,0.26 -4.28,0.38 -6.43,0.38c-10.93,0 -21.47,-3.27 -30.39,-9.37l-24.8,21.84c0.17,1.28 0.25,2.57 0.25,3.87c0,16.43 -13.32,29.76 -29.75,29.76c-16.44,0 -29.76,-13.33 -29.76,-29.76c0,-16.43 13.32,-29.76 29.76,-29.76c2.83,0 5.64,0.4 8.34,1.19l25.83,-22.75c-1.32,-3.49 -2.26,-7.12 -2.82,-10.81l-61.57,-8.3c-8.43,15.66 -24.85,25.66 -42.96,25.66c-26.93,0 -48.77,-21.84 -48.77,-48.77c0,-26.93 21.84,-48.77 48.77,-48.77c23.69,0 43.7,17 47.94,39.78l61.56,8.29c0.42,-0.82 0.84,-1.64 1.3,-2.44l-47.04,-48.04c-6.1,2.65 -12.69,4.02 -19.39,4.02c-26.93,0 -48.78,-21.85 -48.78,-48.78c0,-26.92 21.85,-48.77 48.78,-48.77c16.52,0 31.74,8.34 40.7,21.89l71.13,-17.94c3.19,-23.91 23.69,-42.26 48.34,-42.26c26.93,0 48.77,21.85 48.77,48.78c0,26.26 -20.77,47.68 -46.77,48.73l-19.28,63.5c15.2,9.88 24.57,26.82 24.57,45.26c0,15.47 -6.59,30 -17.94,40.17l21.1,42.12c2.26,-0.32 4.54,-0.48 6.83,-0.48zm-65.84,-135.74l19.53,-64.37c-4.99,-3.7 -9.23,-8.32 -12.5,-13.61l-70.12,17.69c-0.63,6.19 -2.43,12.18 -5.32,17.68l46.91,47.9c6.71,-3.23 14.01,-5.03 21.5,-5.29z" fill="#000000" id="svg_2"/>
            </g>
        </g>
        <text fill="#000000" font-family="Serif" font-size="200" id="svg_4" stroke="#000000" stroke-width="0" text-anchor="middle" x="1093" xml:space="preserve" y="442">Cytoscape</text>
    </g>
</svg>
